X: 5
P: No. V.
M: 2/4
L: 1/8
K: G
V: 1
|:\
|:\
gfed | efge | dcBA | BGE2 |\
gfed | efge | dcBA | GGG2 :|
V: 2 clef=bass middle=d
|:\
|:\
g2G2 | c2c'2 | bagf  | e2E2 |\
g2G2 | c2c'2 | d'2d2 | gdG2 :|

